images/icon-volume.svg

<svg width="18" height="18" viewBox="0 0 18 18" fill="none" xmlns="http://www.w3.org/2000/svg">
<path fill-rule="evenodd" clip-rule="evenodd" d="M11 3.23607L7 5.23607V12L11 14V3.23607ZM13 0L5.76392 3.61804H2C0.89543 3.61804 0 4.51347 0 5.61804V11.618C0 12.7226 0.89543 13.618 2 13.618H5.76395L13 17.2361V0ZM2 5.61804H5V11.618H2V5.61804ZM18 8.61803C18 6.20737 17.0649 4.03041 15.5747 2.55823L13.9973 3.82021C15.2072 4.90974 16 6.6437 16 8.61803C16 10.5924 15.2072 12.3263 13.9973 13.4158L15.5747 14.6778C17.0649 13.2056 18 11.0287 18 8.61803Z" fill="white"/>
</svg>

<svg width="18" height="18" fill="none" xmlns="http://www.w3.org/2000/svg"><path fill-rule="evenodd" clip-rule="evenodd" d="M11 3.236l-4 2V12l4 2V3.236zM13 0L5.764 3.618H2a2 2 0 00-2 2v6a2 2 0 002 2h3.764L13 17.236V0zM2 5.618h3v6H2v-6zm16 3c0-2.41-.935-4.588-2.425-6.06L13.997 3.82C15.207 4.91 16 6.644 16 8.618c0 1.974-.793 3.708-2.003 4.798l1.578 1.262c1.49-1.472 2.425-3.65 2.425-6.06z" fill="#fff"/></svg>
